picto/pushchair-left-framed.svg

<svg class="color-immutable" width="30" height="30" viewBox="0 0 30 30" fill="none" xmlns="http://www.w3.org/2000/svg"><path d="M30 0H0V30H30V0Z" fill="#2D327D"/><path d="M25.5 3C26.325 3 27 3.675 27 4.5V25.5C27 26.325 26.325 27 25.5 27H4.5C3.675 27 3 26.325 3 25.5V4.5C3 3.675 3.675 3 4.5 3H25.5ZM25.5 2.625H4.5C3.46613 2.625 2.625 3.46613 2.625 4.5V25.5C2.625 26.5339 3.46613 27.375 4.5 27.375H25.5C26.5339 27.375 27.375 26.5339 27.375 25.5V4.5C27.375 3.46613 26.5339 2.625 25.5 2.625Z" fill="white"/><path d="M7.45361 21.4827C7.45361 22.9328 8.63336 24.1125 10.0834 24.1125C11.5335 24.1125 12.7131 22.9329 12.7131 21.4827C12.7131 20.0327 11.5335 18.8531 10.0834 18.8531C8.63336 18.8531 7.45361 20.0327 7.45361 21.4827ZM8.21299 21.4827C8.21299 20.4512 9.05209 19.6121 10.0834 19.6121C11.1147 19.6121 11.9537 20.4511 11.9537 21.4827C11.9537 22.514 11.1147 23.3531 10.0834 23.3531C9.05209 23.3531 8.21299 22.514 8.21299 21.4827Z" fill="white"/><path d="M14.2083 21.4827C14.2083 22.9328 15.3879 24.1125 16.8379 24.1125C18.2878 24.1125 19.4676 22.9329 19.4676 21.4827C19.4676 20.0327 18.2878 18.8531 16.8379 18.8531C15.3879 18.8531 14.2083 20.0327 14.2083 21.4827ZM14.9675 21.4827C14.9675 20.4512 15.8066 19.6121 16.8379 19.6121C17.8692 19.6121 18.7085 20.4511 18.7085 21.4827C18.7085 22.514 17.8692 23.3531 16.8379 23.3531C15.8066 23.3531 14.9675 22.514 14.9675 21.4827Z" fill="white"/><path d="M6.02039 12.4828C6.24779 14.6126 7.11051 16.5524 8.41761 18.1076H18.5688C19.8762 16.5524 20.7389 14.6126 20.9662 12.4828H6.02039Z" fill="white"/><path d="M12.4918 11.7326C12.9043 11.7326 13.073 11.4403 12.8667 11.0832L9.7242 5.64023C7.59413 6.87293 6.12892 9.12675 6 11.7326H12.4918Z" fill="white"/><path d="M23.2083 11.4352H18.7085V12.0353H23.2083C23.3733 12.0353 23.5083 11.9003 23.5083 11.7354C23.5083 11.5703 23.3734 11.4352 23.2083 11.4352Z" fill="white"/></svg>

<svg class="color-immutable" width="30" height="30" viewBox="0 0 30 30" fill="none" xmlns="http://www.w3.org/2000/svg"><g clip-path="url(#a)"><path d="M30 0H0v30h30V0Z" fill="#2D327D"/><path d="M25.5 3c.825 0 1.5.675 1.5 1.5v21c0 .825-.675 1.5-1.5 1.5h-21c-.825 0-1.5-.675-1.5-1.5v-21C3 3.675 3.675 3 4.5 3h21Zm0-.375h-21A1.877 1.877 0 0 0 2.625 4.5v21c0 1.034.841 1.875 1.875 1.875h21a1.877 1.877 0 0 0 1.875-1.875v-21A1.877 1.877 0 0 0 25.5 2.625Z" fill="#fff"/><path d="M7.454 21.483c0 1.45 1.18 2.63 2.63 2.63s2.63-1.18 2.63-2.63-1.18-2.63-2.63-2.63-2.63 1.18-2.63 2.63Zm.759 0c0-1.032.84-1.87 1.87-1.87 1.032 0 1.87.838 1.87 1.87 0 1.031-.838 1.87-1.87 1.87-1.03 0-1.87-.839-1.87-1.87ZM14.208 21.483c0 1.45 1.18 2.63 2.63 2.63s2.63-1.18 2.63-2.63-1.18-2.63-2.63-2.63-2.63 1.18-2.63 2.63Zm.76 0c0-1.032.839-1.87 1.87-1.87 1.031 0 1.87.838 1.87 1.87 0 1.031-.839 1.87-1.87 1.87-1.031 0-1.87-.839-1.87-1.87ZM6.02 12.483c.228 2.13 1.09 4.07 2.398 5.625h10.15a10.45 10.45 0 0 0 2.398-5.625H6.02ZM12.492 11.733c.412 0 .581-.293.375-.65L9.724 5.64A7.466 7.466 0 0 0 6 11.733h6.492ZM23.208 11.435h-4.5v.6h4.5a.3.3 0 0 0 .3-.3.3.3 0 0 0-.3-.3Z" fill="#fff"/></g><defs><clipPath id="a"><path fill="#fff" d="M0 0h30v30H0z"/></clipPath></defs></svg>
